StripePaymentsUI/StripePaymentsUI/Resources/StripePaymentsUI.xcassets/CardsNoPadding/stp_card_unpadded_cartes_bancaires.imageset/cartesBancairesNoPadding.svg

<svg fill="none" height="16" viewBox="0 0 24 16" width="24" xmlns="http://www.w3.org/2000/svg" xmlns:xlink="http://www.w3.org/1999/xlink"><linearGradient id="a" gradientUnits="userSpaceOnUse" x1="20.2969" x2="12.1893" y1="-.346124" y2="19.0414"><stop offset="0" stop-color="#002253"/><stop offset=".242548" stop-color="#0082b1"/><stop offset="1" stop-color="#0e9641"/></linearGradient><mask id="b" height="16" maskUnits="userSpaceOnUse" width="24" x="0" y="0"><path d="m22 0h-20c-1.10457 0-2 .89543-2 2v12c0 1.1046.89543 2 2 2h20c1.1046 0 2-.8954 2-2v-12c0-1.10457-.8954-2-2-2z" fill="#fff"/></mask><g clip-rule="evenodd" fill-rule="evenodd" mask="url(#b)"><path d="m0 0h24v16h-24z" fill="url(#a)"/><path d="m13.0602 3.50602v4.206h6.7134c1.1615 0 2.103-.94154 2.103-2.103 0-1.16145-.9415-2.103-2.103-2.103zm-.5727 4.206c-.0382-.8273-.2446-1.56922-.5925-2.19918-.3871-.70101-.9495-1.26337-1.6505-1.65049-.70098-.38712-1.54061-.59898-2.48226-.59898h-.88973c-.94165 0-1.78129.21186-2.48229.59898s-1.26336.94948-1.65048 1.65049c-.38712.701-.59899 1.54063-.59899 2.48228s.21187 1.78128.59899 2.48228.94948 1.2634 1.65048 1.6505 1.54064.599 2.48229.599h.88973c.94165 0 1.78128-.2119 2.48226-.599.701-.3871 1.2634-.9495 1.6505-1.6505.3479-.62996.5543-1.37188.5925-2.19918h-5.00836v-.5662zm.5727.5662v4.20598h6.7134c1.1615 0 2.103-.9415 2.103-2.103 0-1.16144-.9415-2.10298-2.103-2.10298z" fill="#fff"/></g></svg>

<svg width="24" height="16" viewBox="0 0 24 16" fill="none" xmlns="http://www.w3.org/2000/svg">
<mask id="mask0_8136_52870" style="mask-type:luminance" maskUnits="userSpaceOnUse" x="0" y="0" width="24" height="16">
<path d="M22 0H2C0.89543 0 0 0.89543 0 2V14C0 15.1046 0.89543 16 2 16H22C23.1046 16 24 15.1046 24 14V2C24 0.89543 23.1046 0 22 0Z" fill="white"/>
</mask>
<g mask="url(#mask0_8136_52870)">
<path fill-rule="evenodd" clip-rule="evenodd" d="M0 0H24V16H0V0Z" fill="url(#paint0_linear_8136_52870)"/>
<path fill-rule="evenodd" clip-rule="evenodd" d="M13.0602 3.50602V7.71202H19.7736C20.9351 7.71202 21.8766 6.77048 21.8766 5.60902C21.8766 4.44757 20.9351 3.50602 19.7736 3.50602H13.0602ZM12.4875 7.71202C12.4493 6.88472 12.2429 6.1428 11.895 5.51284C11.5079 4.81183 10.9455 4.24947 10.2445 3.86235C9.54352 3.47523 8.70389 3.26337 7.76224 3.26337H6.87251C5.93086 3.26337 5.09122 3.47523 4.39022 3.86235C3.68922 4.24947 3.12686 4.81183 2.73974 5.51284C2.35262 6.21384 2.14075 7.05347 2.14075 7.99512C2.14075 8.93677 2.35262 9.7764 2.73974 10.4774C3.12686 11.1784 3.68922 11.7408 4.39022 12.1279C5.09122 12.515 5.93086 12.7269 6.87251 12.7269H7.76224C8.70389 12.7269 9.54352 12.515 10.2445 12.1279C10.9455 11.7408 11.5079 11.1784 11.895 10.4774C12.2429 9.84744 12.4493 9.10552 12.4875 8.27822H7.47914V7.71202H12.4875ZM13.0602 8.27822V12.4842H19.7736C20.9351 12.4842 21.8766 11.5427 21.8766 10.3812C21.8766 9.21976 20.9351 8.27822 19.7736 8.27822H13.0602Z" fill="white"/>
</g>
<defs>
<linearGradient id="paint0_linear_8136_52870" x1="20.2969" y1="-0.346124" x2="12.1893" y2="19.0414" gradientUnits="userSpaceOnUse">
<stop stop-color="#002253"/>
<stop offset="0.242548" stop-color="#0082B1"/>
<stop offset="1" stop-color="#0E9641"/>
</linearGradient>
</defs>
</svg>
